assets/images/h-banner-butn-arrow.svg

<svg width="34" height="34" viewBox="0 0 34 34" fill="none" xmlns="http://www.w3.org/2000/svg">
<path d="M17.0002 0.333313C7.81683 0.333313 0.333496 7.81665 0.333496 17C0.333496 26.1833 7.81683 33.6666 17.0002 33.6666C26.1835 33.6666 33.6668 26.1833 33.6668 17C33.6668 7.81665 26.1835 0.333313 17.0002 0.333313ZM21.6502 17.8833L15.7668 23.7666C15.5168 24.0166 15.2002 24.1333 14.8835 24.1333C14.5668 24.1333 14.2502 24.0166 14.0002 23.7666C13.5168 23.2833 13.5168 22.4833 14.0002 22L19.0002 17L14.0002 12C13.5168 11.5166 13.5168 10.7166 14.0002 10.2333C14.4835 9.74998 15.2835 9.74998 15.7668 10.2333L21.6502 16.1166C22.1502 16.6 22.1502 17.4 21.6502 17.8833Z" fill="white"/>
</svg>

<svg xmlns="http://www.w3.org/2000/svg" width="34" height="34" fill="none"><path d="M17 .333C7.817.333.333 7.817.333 17S7.817 33.667 17 33.667 33.667 26.183 33.667 17 26.184.333 17 .333zm4.65 17.55-5.883 5.883c-.25.25-.567.367-.883.367s-.633-.117-.883-.367A1.26 1.26 0 0 1 14 22l5-5-5-5a1.26 1.26 0 0 1 0-1.767 1.26 1.26 0 0 1 1.767 0l5.883 5.883a1.23 1.23 0 0 1 0 1.767z" fill="#fff"/></svg>
